src/ui/Svg/optimized/detail.svg

<?xml version="1.0" standalone="no"?>
<!DOCTYPE svg PUBLIC "-//W3C//DTD SVG 1.1//EN" "http://www.w3.org/Graphics/SVG/1.1/DTD/svg11.dtd">
<svg class="icon" version="1.1" viewBox="0 0 1024 1024" fill="currentColor" aria-hidden="true">
  <path d="M222.15297162 239.04296022h513.60503245v119.10433406H222.15297162v-119.10433406zM222.15297162 443.41034875h309.37904341v119.15146492H222.15297162v-119.10433267zM222.15297162 647.16501125h205.5928378v119.15146491H222.15297162v-119.15146491zM860.04693422 800.91187849l91.5317045 92.66288793a33.93554407 33.93554407 0 0 1-0.47132793 48.16961995 34.4068706 34.4068706 0 0 1-48.45241477-0.47132653l-89.6935292-90.82471401a179.48132149 179.48132149 0 0 1-104.7759923 33.69988148c-99.16720054 0-179.85838355-80.17272286-179.85838357-178.72719875 0-98.50734366 80.69118303-178.68006652 179.85838357-178.68006649 99.21433415 0 179.9055158 80.12559062 179.90551717 178.68006649 0 33.8412782-9.75646892 66.92843367-28.09108972 95.49084993z m-263.18899687-95.44371768a111.09177459 111.09177459 0 0 0 111.37457079 110.62044665 111.09177459 111.09177459 0 0 0 111.32743716-110.62044665 111.09177459 111.09177459 0 0 0-111.37457078-110.66758029 111.09177459 111.09177459 0 0 0-111.32743717 110.66758029zM501.83841396 964.22668431H42.29458806V45.13903251h919.0876518v459.5438259h-102.13656063V147.27559316H144.43114871v714.81453052h357.40726525V964.22668431z"/>
</svg>

<svg xmlns="http://www.w3.org/2000/svg" class="icon" viewBox="0 0 1024 1024" fill="currentColor" aria-hidden="true">
  <path d="M222.153 239.043h513.605v119.104H222.153V239.043zm0 204.367h309.379v119.152H222.153V443.457zm0 203.755h205.593v119.151H222.153V647.165zm637.894 153.747l91.532 92.663a33.936 33.936 0 01-.472 48.17 34.407 34.407 0 01-48.452-.472l-89.694-90.825a179.481 179.481 0 01-104.776 33.7c-99.167 0-179.858-80.172-179.858-178.727 0-98.507 80.691-178.68 179.858-178.68 99.215 0 179.906 80.126 179.906 178.68 0 33.841-9.757 66.928-28.091 95.49zm-263.19-95.444a111.092 111.092 0 00111.376 110.62 111.092 111.092 0 00111.327-110.62 111.092 111.092 0 00-111.375-110.667 111.092 111.092 0 00-111.327 110.667zm-95.019 258.759H42.295V45.139h919.087v459.544H859.246V147.276H144.43V862.09h357.407v102.137z"/>
</svg>
